frontend/public/svg/finance/piggy-bank.svg

<svg width="179" height="162" viewBox="0 0 179 162" fill="none" xmlns="http://www.w3.org/2000/svg">
<g clip-path="url(#clip0)">
<path d="M38.2261 140.094C40.0868 141.026 40.711 142.326 40.3113 144.442C39.9764 146.612 39.9566 148.82 40.2528 150.996C40.6971 155.09 42.8918 159.818 46.6592 160.521C49.1968 161.015 51.7744 161.272 54.3594 161.292C57.8335 161.324 61.2831 160.706 64.5294 159.468C68.5451 157.921 70.4366 154.41 69.5834 150.077C69.3865 149.065 69.1739 148.055 68.9507 146.985L68.8194 146.352C70.2332 146.483 71.622 146.634 72.9727 146.779C76.5432 147.227 80.1347 147.489 83.7327 147.567C87.3485 147.56 90.8396 147.239 94.5551 146.873C95.873 146.742 97.229 146.611 98.5863 146.496C98.5601 146.694 98.5345 146.887 98.5089 147.076C98.3684 147.947 98.2923 148.828 98.2805 149.712C98.3336 153.897 99.4363 157.128 101.468 159.048C103.086 160.579 105.271 161.298 107.95 161.182C113.758 160.934 118.545 160.531 123.015 159.913C126.242 159.468 128.134 157.278 128.2 153.905C128.262 150.82 128.143 147.683 128.028 144.651C127.992 143.704 127.955 142.757 127.925 141.81C127.892 140.808 127.808 139.816 127.728 138.857C127.706 138.598 127.684 138.341 127.663 138.088C129.234 137.406 130.786 136.738 132.319 136.083C136.065 134.477 139.605 132.96 143.158 131.32C151.829 127.321 158.056 121.3 161.672 113.427C161.843 113.055 162.055 112.692 162.28 112.311C162.314 112.254 162.346 112.195 162.381 112.138C162.678 112.177 162.969 112.217 163.256 112.259C164.221 112.394 165.132 112.522 166.068 112.575C167.59 112.661 169.093 112.63 170.492 112.581C175.325 112.419 177.217 110.627 177.722 105.736C178.66 96.6717 177.328 87.6563 176.037 78.9375L175.976 78.5279C175.296 73.9264 173.409 72.3282 168.501 72.1936C166.412 72.1378 164.296 72.1523 162.248 72.1661C161.483 72.1713 160.719 72.1766 159.957 72.1779C154.926 57.6135 146.676 49.0911 134.061 45.4431C135.064 43.3176 135.929 41.1294 136.65 38.8922C137.86 35.39 139.002 32.0807 141.296 29.2545C142.717 27.5021 142.9 25.6893 141.785 24.4042C141.279 23.9229 140.678 23.5537 140.02 23.3205C139.362 23.0875 138.662 22.9957 137.967 23.0515C125.698 24.1929 116.899 28.801 111.075 37.1391C110.792 37.5297 110.49 37.9059 110.17 38.266L110.118 38.3264C109.458 38.2778 108.823 38.2201 108.204 38.1643C106.719 37.9989 105.226 37.9183 103.733 37.9228C99.5085 38.016 94.8957 38.2116 89.6299 38.522C71.1317 39.6142 55.3262 44.3319 41.3108 52.9457C28.5608 60.781 20.9912 71.2688 18.1677 85.0099C17.8461 86.5746 17.2363 87.504 16.2288 87.9241C16.1691 87.2717 16.1232 86.6153 16.0772 85.9741C16.0003 83.885 15.7102 81.8096 15.2115 79.7802C14.78 78.1978 13.7928 76.8234 12.4307 75.9098C11.0685 74.9962 9.42288 74.6037 7.79497 74.8045C6.24288 75.0434 4.81711 75.8002 3.74941 76.9521C2.68171 78.1033 2.03468 79.582 1.9134 81.148C1.82543 83.0862 1.93698 85.0283 2.24621 86.9435C2.34926 87.7606 2.45621 88.6067 2.52775 89.4284C2.54057 89.5807 2.60499 89.7231 2.71026 89.834C1.57808 91.1697 0.296959 92.9378 1.89449 95.0631C3.41456 97.0852 5.67565 96.6849 7.49371 96.3665L8.01865 96.2687C8.74712 96.0948 9.49495 96.0147 10.2437 96.0312C11.6876 96.1316 13.154 96.3219 14.7069 96.5228C15.1926 96.5884 15.6913 96.6494 16.2065 96.7144C16.2065 96.7407 16.2032 96.7669 16.2019 96.7932C16.175 97.2985 16.1481 97.8125 16.0976 98.3251C15.4706 103.793 16.2124 109.331 18.2563 114.441C18.6251 115.349 18.9611 116.3 19.2853 117.218C19.7888 118.735 20.3806 120.222 21.0576 121.67C22.2085 124.139 23.6319 126.473 25.3013 128.627C28.65 132.719 32.6787 137.316 38.2261 140.094ZM131.144 31.8504C130.371 33.3961 129.698 34.9902 129.131 36.6226C128.05 39.985 127.085 43.5883 126.263 47.3347C125.701 49.8944 126.729 51.4276 129.406 52.0203C137.762 53.8692 144.182 58.8462 149.03 67.231C150.549 70.0218 151.761 72.9694 152.646 76.0214C153.746 79.5157 154.943 81.0968 159.127 81.2307C161.03 81.2924 162.952 81.278 164.987 81.2629C165.751 81.2576 166.538 81.2517 167.355 81.2498L168.964 103.137C168.203 103.309 167.468 103.465 166.755 103.622C164.712 104.062 162.783 104.475 160.929 105.075C159.594 105.504 157.909 106.426 157.199 107.727C150.947 119.121 140.182 124.436 130.478 128.133L129.216 128.612C126.765 129.544 124.228 130.508 121.761 131.523C119.344 132.516 119.191 135.09 119.117 136.328C118.93 139.441 118.854 142.606 118.779 145.668C118.752 146.809 118.724 147.949 118.691 149.09C118.678 149.525 118.68 149.962 118.683 150.525V150.942L108.891 151.964C108.766 151.151 108.629 150.356 108.498 149.574C108.115 147.567 107.851 145.54 107.705 143.503C107.568 140.768 106.689 138.801 105.093 137.655C103.387 136.431 100.912 136.232 97.9274 137.077C91.9448 138.768 86.0667 138.807 80.558 138.704C78.9073 138.673 77.2166 138.476 75.5804 138.285C74.3937 138.146 73.1657 138.003 71.9469 137.921C70.4419 137.806 68.929 137.869 67.4398 138.11C63.6985 138.753 61.7807 140.692 61.0194 144.59C60.7752 145.837 60.6373 147.111 60.5159 148.306C60.4398 149.065 60.4003 149.822 60.3544 150.699C60.3419 150.942 60.3288 151.196 60.3137 151.462L49.8464 152.183C49.7506 151.205 49.643 150.245 49.5373 149.3C49.2066 146.786 49.018 144.256 48.9723 141.721C48.9769 139.328 48.6236 136.826 46.0246 134.756L44.6201 133.641C41.3965 131.184 38.3166 128.545 35.3953 125.736C31.8334 122.292 29.0575 118.12 27.2576 113.504C25.4576 108.888 24.6761 103.938 24.9666 98.9926C25.3355 90.4418 27.0368 83.0974 30.1682 76.5392C32.6721 71.2944 36.6862 66.7316 42.4416 62.5905C56.1551 52.7173 72.426 47.5788 92.1824 46.8804C94.5695 46.7964 97.0013 46.7557 99.3536 46.717C102.924 46.6579 106.615 46.5969 110.245 46.381C111.961 46.2786 113.596 44.3464 114.056 43.7524C118.538 38.0022 122.674 34.4908 127.466 32.3695C128.572 31.8799 129.716 31.4409 131.042 30.9322L131.687 30.684C131.504 31.087 131.321 31.4743 131.144 31.8504Z" fill="black"/>
<path d="M73.1913 0.333696C67.0171 0.87189 61.8172 4.51855 58.5474 10.6009C56.3401 14.7082 55.6884 18.6796 56.6105 22.405C58.4568 29.8629 64.3992 33.6606 74.2742 33.6941C74.5256 33.7072 74.775 33.713 75.0237 33.713C80.9905 33.713 86.3521 29.9994 89.477 23.6494C92.2946 17.9222 92.4147 13.2038 89.8432 9.22372C85.7621 2.90977 79.8544 -0.245194 73.1913 0.333696ZM80.7792 19.439C78.8226 23.0587 76.0955 25.1328 73.4905 24.9307H73.4466C69.7553 24.913 67.0427 23.9132 65.6004 22.0427C64.3671 20.4419 64.079 18.192 64.7668 15.5378C65.1119 14.0892 65.6814 12.7032 66.4546 11.4304C67.025 10.5094 67.8204 9.74879 68.7669 9.22051C69.7127 8.69229 70.7779 8.41374 71.8609 8.41118C72.8309 8.41518 73.7885 8.62718 74.6687 9.03273C76.3509 9.7589 77.9333 10.6969 79.3779 11.8236C82.2835 14.1792 82.6215 16.0299 80.7792 19.439Z" fill="black"/>
<path d="M86.9643 52.3592C74.9533 53.2952 64.5683 56.0943 55.2069 60.9178C53.498 61.8499 51.8945 62.9636 50.4243 64.2395C48.6462 65.7235 48.2406 67.7687 49.4141 69.3282C49.6689 69.6879 50.008 69.9786 50.4017 70.1769C50.7954 70.3744 51.2315 70.4722 51.6719 70.4624C52.5659 70.4217 53.439 70.1775 54.2245 69.7489C61.668 66.0669 70.1936 63.559 80.288 62.0822C83.2566 61.6477 86.266 61.1061 89.2306 60.4734C91.5278 59.9851 92.8221 58.5444 92.8838 56.4192V56.3982C92.8976 55.8722 92.8005 55.3493 92.5976 54.8636C92.3955 54.3779 92.0923 53.9404 91.709 53.58C90.67 52.6204 89.0291 52.1932 86.9643 52.3592Z" fill="black"/>
<path d="M120.703 69.1308C120.645 70.0017 120.764 70.8753 121.051 71.699C121.339 72.5234 121.79 73.2814 122.377 73.9279C122.964 74.5738 123.675 75.0949 124.468 75.4605C125.261 75.8254 126.119 76.0276 126.991 76.0538C127.09 76.0584 127.188 76.0604 127.287 76.0604C128.985 76.0558 130.615 75.3896 131.829 74.2029C132.491 73.5669 133.018 72.8036 133.377 71.9589C133.736 71.1142 133.921 70.2052 133.92 69.2876C133.901 65.7163 131.284 62.8757 127.963 62.8199C123.782 62.7772 120.853 65.2857 120.703 69.1308Z" fill="black"/>
</g>
<defs>
<clipPath id="clip0">
<rect width="177.868" height="161.459" fill="white" transform="translate(0.700439 0.108887)"/>
</clipPath>
</defs>
</svg>

<svg xmlns="http://www.w3.org/2000/svg" width="179" height="162" fill="none" viewBox="0 0 179 162"><g fill="#000" clip-path="url(#a)"><path d="M38.226 140.094c1.86.932 2.485 2.232 2.085 4.348a22.8 22.8 0 0 0-.058 6.554c.444 4.094 2.639 8.822 6.406 9.525 2.538.494 5.115.751 7.7.771a27.8 27.8 0 0 0 10.17-1.824c4.016-1.547 5.908-5.058 5.054-9.391-.197-1.012-.41-2.022-.632-3.092l-.132-.633c1.414.131 2.803.282 4.154.427 3.57.448 7.162.71 10.76.788 3.615-.007 7.107-.328 10.822-.694a279 279 0 0 1 4.031-.377l-.077.58q-.21 1.308-.228 2.636c.053 4.185 1.155 7.416 3.187 9.336 1.618 1.531 3.803 2.25 6.482 2.134 5.808-.248 10.595-.651 15.065-1.269 3.227-.445 5.119-2.635 5.185-6.008.062-3.085-.057-6.222-.172-9.254-.036-.947-.073-1.894-.103-2.841-.033-1.002-.117-1.994-.197-2.953l-.065-.769q2.356-1.023 4.656-2.005c3.746-1.606 7.286-3.123 10.839-4.763 8.671-3.999 14.898-10.02 18.514-17.893.171-.372.383-.735.608-1.116l.101-.173q.445.058.875.121c.965.135 1.876.263 2.812.316 1.522.086 3.025.055 4.424.006 4.833-.162 6.725-1.954 7.23-6.845.938-9.064-.394-18.08-1.685-26.799l-.061-.41c-.68-4.6-2.567-6.199-7.475-6.333-2.089-.056-4.205-.042-6.253-.028q-1.148.008-2.291.012c-5.031-14.564-13.281-23.087-25.896-26.735a55 55 0 0 0 2.589-6.55c1.21-3.503 2.352-6.812 4.646-9.638 1.421-1.753 1.604-3.566.489-4.85a4.97 4.97 0 0 0-3.818-1.354c-12.269 1.142-21.068 5.75-26.892 14.088q-.425.586-.905 1.127l-.052.06c-.66-.048-1.295-.106-1.914-.162a39 39 0 0 0-4.471-.241c-4.225.093-8.837.289-14.103.599-18.498 1.092-34.304 5.81-48.32 14.424C28.56 60.78 20.992 71.269 18.169 85.01c-.322 1.565-.932 2.494-1.94 2.914-.059-.652-.105-1.309-.15-1.95a30.7 30.7 0 0 0-.867-6.194 6.82 6.82 0 0 0-7.416-4.975 6.96 6.96 0 0 0-5.882 6.343 28.3 28.3 0 0 0 .333 5.796c.103.817.21 1.663.282 2.484a.67.67 0 0 0 .182.406c-1.132 1.336-2.413 3.104-.816 5.23 1.52 2.021 3.782 1.62 5.6 1.303l.525-.098a8.8 8.8 0 0 1 2.225-.238c1.444.1 2.91.29 4.463.492q.728.096 1.5.191l-.005.08c-.027.505-.054 1.019-.104 1.531a33.2 33.2 0 0 0 2.158 16.116c.37.908.705 1.859 1.03 2.777a41 41 0 0 0 1.772 4.452 36.6 36.6 0 0 0 4.243 6.957c3.349 4.092 7.378 8.689 12.925 11.467M131.144 31.85a40 40 0 0 0-2.013 4.773 117 117 0 0 0-2.868 10.712c-.562 2.56.466 4.093 3.143 4.685 8.356 1.85 14.776 6.826 19.624 15.211a44 44 0 0 1 3.616 8.79c1.1 3.495 2.297 5.076 6.481 5.21 1.903.061 3.825.047 5.86.032q1.144-.009 2.368-.013l1.609 21.887c-.761.172-1.496.328-2.209.485-2.043.44-3.972.853-5.826 1.453-1.335.429-3.02 1.351-3.73 2.652-6.252 11.394-17.017 16.709-26.721 20.406l-1.262.479c-2.451.932-4.988 1.896-7.455 2.911-2.417.993-2.57 3.567-2.644 4.805-.187 3.113-.263 6.278-.338 9.34a651 651 0 0 1-.088 3.422 41 41 0 0 0-.008 1.435v.417l-9.792 1.022c-.125-.813-.262-1.608-.393-2.39a52 52 0 0 1-.793-6.071c-.137-2.735-1.016-4.702-2.612-5.848-1.706-1.224-4.181-1.423-7.166-.578-5.982 1.691-11.86 1.73-17.369 1.627-1.65-.031-3.341-.228-4.978-.419-1.186-.139-2.414-.282-3.633-.364a19 19 0 0 0-4.507.189c-3.741.643-5.66 2.582-6.42 6.48-.245 1.247-.383 2.521-.504 3.716a51 51 0 0 0-.162 2.393q-.018.364-.04.763l-10.468.721c-.095-.978-.203-1.938-.309-2.883a67 67 0 0 1-.565-7.579c.005-2.393-.348-4.895-2.947-6.965l-1.405-1.115a106 106 0 0 1-9.225-7.905 34.4 34.4 0 0 1-10.428-26.743c.369-8.551 2.07-15.896 5.201-22.454 2.504-5.245 6.518-9.807 12.274-13.949 13.713-9.873 29.984-15.011 49.74-15.71 2.388-.084 4.82-.124 7.172-.163 3.57-.06 7.261-.12 10.891-.336 1.716-.102 3.351-2.035 3.811-2.629 4.482-5.75 8.618-9.261 13.41-11.382 1.106-.49 2.25-.93 3.576-1.438l.645-.248q-.276.603-.543 1.166M73.191.334C67.017.872 61.817 4.519 58.547 10.6c-2.207 4.107-2.859 8.079-1.936 11.804 1.846 7.458 7.788 11.256 17.663 11.29q.377.018.75.018c5.966 0 11.328-3.714 14.453-10.064 2.818-5.727 2.938-10.445.366-14.425-4.08-6.314-9.989-9.47-16.652-8.89m7.588 19.105c-1.956 3.62-4.683 5.694-7.288 5.492h-.044c-3.692-.018-6.404-1.018-7.847-2.888-1.233-1.601-1.521-3.851-.833-6.505a14.3 14.3 0 0 1 1.688-4.108 6.37 6.37 0 0 1 5.406-3.019c.97.004 1.927.216 2.808.622a21.5 21.5 0 0 1 4.709 2.79c2.906 2.356 3.243 4.207 1.401 7.616"/><path d="M86.964 52.36c-12.01.935-22.396 3.734-31.757 8.558a27 27 0 0 0-4.783 3.322c-1.778 1.484-2.183 3.529-1.01 5.088a2.7 2.7 0 0 0 2.258 1.134 5.9 5.9 0 0 0 2.553-.713c7.443-3.682 15.969-6.19 26.063-7.667 2.969-.434 5.978-.976 8.943-1.609 2.297-.488 3.591-1.929 3.653-4.054v-.02a3.73 3.73 0 0 0-1.175-2.819c-1.039-.96-2.68-1.387-4.745-1.22m33.739 16.77a6.495 6.495 0 0 0 6.288 6.924q.148.006.296.006a6.52 6.52 0 0 0 4.542-1.857 6.8 6.8 0 0 0 2.091-4.915c-.019-3.572-2.636-6.412-5.957-6.468-4.181-.043-7.11 2.466-7.26 6.31"/></g><defs><clipPath id="a"><path fill="#fff" d="M.7.109h177.868v161.459H.7z"/></clipPath></defs></svg>
